report_00007_2020-12-11T15:55:29.892Z/largest-contentful-paint/comparison/line/1_vs_2.svg

<svg width="640" height="500" xmlns="http://www.w3.org/2000/svg" xmlns:xlink="http://www.w3.org/1999/xlink"><path fill="#fff" d="M0 0h640v500H0z"/><defs><path id="d" stroke-width=".222" stroke="currentColor" d="M-1-1h2v2h-2z"/><path id="b" stroke-width=".222" stroke="currentColor" d="M0-1.33l-1.33 2h2.66z"/><path id="f" stroke-width=".222" stroke="currentColor" d="M0 1.33L1.265.411.782-1.067l-1.564-.009-.483 1.487z"/><use xlink:href="#b" id="c" stroke="currentColor" transform="rotate(180)"/><use xlink:href="#d" id="e" stroke="currentColor" transform="rotate(45)"/><circle id="a" stroke-width=".222" stroke="currentColor" cx="0" cy="0" r="1"/></defs><g fill="none" color="#000" stroke="currentColor"><path stroke="#000" d="M70.5 372.9h9m535.5 0h-9"/><text transform="translate(62.2 376.8)" stroke="none" fill="#000" font-family="Arial" font-size="12" text-anchor="end"><tspan>12000</tspan></text></g><g fill="none" color="#000" stroke="currentColor"><path stroke="#000" d="M70.5 305.3h9m535.5 0h-9"/><text transform="translate(62.2 309.2)" stroke="none" fill="#000" font-family="Arial" font-size="12" text-anchor="end"><tspan>13000</tspan></text></g><g fill="none" color="#000" stroke="currentColor"><path stroke="#000" d="M70.5 237.6h9m535.5 0h-9"/><text transform="translate(62.2 241.5)" stroke="none" fill="#000" font-family="Arial" font-size="12" text-anchor="end"><tspan>14000</tspan></text></g><g fill="none" color="#000" stroke="currentColor"><path stroke="#000" d="M70.5 170h9m535.5 0h-9"/><text transform="translate(62.2 173.9)" stroke="none" fill="#000" font-family="Arial" font-size="12" text-anchor="end"><tspan>15000</tspan></text></g><g fill="none" color="#000" stroke="currentColor"><path stroke="#000" d="M70.5 102.3h9m535.5 0h-9"/><text transform="translate(62.2 106.2)" stroke="none" fill="#000" font-family="Arial" font-size="12" text-anchor="end"><tspan>16000</tspan></text></g><g fill="none" color="#000" stroke="currentColor"><path stroke="#000" d="M70.5 34.6h9m535.5 0h-9"/><text transform="translate(62.2 38.5)" stroke="none" fill="#000" font-family="Arial" font-size="12" text-anchor="end"><tspan>17000</tspan></text></g><g fill="none" color="#000" stroke="currentColor"><path stroke="#000" d="M70.5 428v-9m0-400.9v9"/><text transform="translate(70.5 449.9)" stroke="none" fill="#000" font-family="Arial" font-size="12" text-anchor="middle"><tspan>0</tspan></text></g><g fill="none" color="#000" stroke="currentColor"><path stroke="#000" d="M125.5 428v-9m0-400.9v9"/><text transform="translate(125.5 449.9)" stroke="none" fill="#000" font-family="Arial" font-size="12" text-anchor="middle"><tspan>10</tspan></text></g><g fill="none" color="#000" stroke="currentColor"><path stroke="#000" d="M180.5 428v-9m0-400.9v9"/><text transform="translate(180.5 449.9)" stroke="none" fill="#000" font-family="Arial" font-size="12" text-anchor="middle"><tspan>20</tspan></text></g><g fill="none" color="#000" stroke="currentColor"><path stroke="#000" d="M235.5 428v-9m0-400.9v9"/><text transform="translate(235.5 449.9)" stroke="none" fill="#000" font-family="Arial" font-size="12" text-anchor="middle"><tspan>30</tspan></text></g><g fill="none" color="#000" stroke="currentColor"><path stroke="#000" d="M290.5 428v-9m0-400.9v9"/><text transform="translate(290.5 449.9)" stroke="none" fill="#000" font-family="Arial" font-size="12" text-anchor="middle"><tspan>40</tspan></text></g><g fill="none" color="#000" stroke="currentColor"><path stroke="#000" d="M345.5 428v-9m0-400.9v9"/><text transform="translate(345.5 449.9)" stroke="none" fill="#000" font-family="Arial" font-size="12" text-anchor="middle"><tspan>50</tspan></text></g><g fill="none" color="#000" stroke="currentColor"><path stroke="#000" d="M400.5 428v-9m0-400.9v9"/><text transform="translate(400.5 449.9)" stroke="none" fill="#000" font-family="Arial" font-size="12" text-anchor="middle"><tspan>60</tspan></text></g><g fill="none" color="#000" stroke="currentColor"><path stroke="#000" d="M455.5 428v-9m0-400.9v9"/><text transform="translate(455.5 449.9)" stroke="none" fill="#000" font-family="Arial" font-size="12" text-anchor="middle"><tspan>70</tspan></text></g><g fill="none" color="#000" stroke="currentColor"><path stroke="#000" d="M510.5 428v-9m0-400.9v9"/><text transform="translate(510.5 449.9)" stroke="none" fill="#000" font-family="Arial" font-size="12" text-anchor="middle"><tspan>80</tspan></text></g><g fill="none" color="#000" stroke="currentColor"><path stroke="#000" d="M565.5 428v-9m0-400.9v9"/><text transform="translate(565.5 449.9)" stroke="none" fill="#000" font-family="Arial" font-size="12" text-anchor="middle"><tspan>90</tspan></text></g><path stroke="#000" d="M70.5 18.1V428H615V18.1H70.5z" fill="none" color="#000"/><text transform="translate(283.9 467.9)" stroke="none" fill="#000" font-family="Arial" font-size="12" text-anchor="end" color="#000"><tspan>pages</tspan></text><path stroke="#9400D3" d="M292.2 464h42.2M70.5 263.7l5.5 6.7 5.5-8.1 5.5 4.3 5.5 1.2 5.5 5 5.5.3 5.5-9.4 5.5 4.9 5.5.7 5.5 5.5 5.5.7 5.5-3.5 5.5 2.5 5.5-12.2 5.5 10.5 5.5-5.4 5.5 6.2 5.5-9.1 5.5 5.5 5.5 3.7 5.5-4.2 5.5 2.6 5.5-5 5.5.2 5.5 7.7 5.5-2 5.5-9.2 5.5 9.7 5.5 2 5.5-6.9 5.5-9.1 5.5 14.2 5.5.9 5.5-6.2 5.5 5.2 5.5 1.4 5.5-.6 5.5-10.4 5.5 4.5 5.5 5 5.5 1.2 5.5-6.3 5.5-1.3 5.5 6.8 5.5-10.2 5.5 3.2 5.5 9.5 5.5-2.1 5.5.1 5.5.1 5.5-8.6 5.5 4.3 5.5-.1 5.5 2.5 5.5 1.9 5.5-4.8 5.5 8.5 5.5-5.3 5.5-2.7 5.5-1.5 5.5 6.3 5.5.3 5.5-6.7 5.5 4.4 5.5-9.3 5.5 10.4 5.5-4.5 5.5 6L450 26l5.5 238.5 5.5 8.7 5.5-13.9 5.5 5.5 5.5 12.8 5.5-3.5 5.5-1.3 5.5-8.3 5.5 9.4 5.5-7.7 5.5 2.6 5.5-1.6 5.5 7.4 5.5-5.1 5.5 4.7 5.5 60.2 5.5-1.9 5.5-61.6 5.5 2.2 5.5-16.6 5.5 16.6 5.5-13.9 5.5 11.2 5.5 4.1 5.5.1 5.5-1.5 5.5-.8 5.5-3.5 5.5.3 5.5 4" fill="none" color="#000"/><text transform="translate(283.9 485.9)" stroke="none" fill="#000" font-family="Arial" font-size="12" text-anchor="end" color="#000"><tspan>pages+cached</tspan></text><path stroke="#009E73" d="M292.2 482h42.2M70.5 352.8l5.5 67.3 5.5-249.5 5.5-54.3 5.5 1.3 5.5-.4h5.5l5.5 61.2 5.5 5.2 5.5-67.4 5.5 67.6L131 116l5.5-3.1 5.5 65.5 5.5-61.6 5.5 61.4 5.5-61.4L164 179l5.5-62.9 5.5 68.2 5.5-4 5.5-1.9 5.5-60.4 5.5.5 5.5.2 5.5 60.4 5.5-61.8 5.5 1.6 5.5 60.7 5.5 3.4 5.5-64.6 5.5-.9 5.5.4 5.5-.5 5.5 1.4 5.5-2.5 5.5 1.4 5.5 60.6 5.5 7.5 5.5-68h11l5.5 60.9 5.5-62.2 5.5 1.9 5.5-1.3 5.5 68.2 5.5-67.5 5.5.1 5.5 60.8 5.5 6 5.5-5.1 5.5-66.7 5.5 4.6 5.5 61.4 5.5 5.5 5.5-.6 5.5-.2 5.5-64.3 5.5 61 5.5.1 5.5-62.9 5.5 67.8 5.5-67.6 5.5 62L428 119l5.5-1.6 5.5 1.2 5.5.4 5.5 64.9 5.5-65.5 5.5-.4h5.5l5.5.3 5.5-1.7 5.5 2.3 5.5-1.1 5.5 66.9 5.5-65.7 5.5-.6 5.5 60.2 5.5-60.2 5.5 61.2 5.5-61.1 5.5 1.6 5.5-1.9 5.5 66.6 5.5-66.6 5.5.8 5.5 66.1 5.5-66.7 5.5 66.7 5.5-1.3 5.5.5 5.5-65.9 5.5.9 5.5 67.4 5.5-69.1 5.5 61.7 5.5-.9" fill="none" color="#000"/><text transform="translate(483.8 467.9)" stroke="none" fill="#000" font-family="Arial" font-size="12" text-anchor="end" color="#000"><tspan>score p10=2500</tspan></text><path stroke="#56B4E9" d="M492.1 464h42.2" fill="none" color="#000"/><g><text transform="translate(483.8 485.9)" stroke="none" fill="#000" font-family="Arial" font-size="12" text-anchor="end" color="#000"><tspan>score median=4000</tspan></text><path stroke="#E69F00" d="M492.1 482h42.2" fill="none" color="#000"/></g><g fill="none" color="#000" stroke="currentColor"><path stroke="#000" d="M70.5 18.1V428H615V18.1H70.5z"/></g></svg>

<?xml version="1.0" encoding="utf-8"  standalone="no"?>
<svg 
 width="640" height="500"
 viewBox="0 0 640 500"
 xmlns="http://www.w3.org/2000/svg"
 xmlns:xlink="http://www.w3.org/1999/xlink"
>

<title>Gnuplot</title>
<desc>Produced by GNUPLOT 5.4 patchlevel 0 </desc>

<g id="gnuplot_canvas">

<rect x="0" y="0" width="640" height="500" fill="#ffffff"/>
<defs>

	<circle id='gpDot' r='0.5' stroke-width='0.5' stroke='currentColor'/>
	<path id='gpPt0' stroke-width='0.222' stroke='currentColor' d='M-1,0 h2 M0,-1 v2'/>
	<path id='gpPt1' stroke-width='0.222' stroke='currentColor' d='M-1,-1 L1,1 M1,-1 L-1,1'/>
	<path id='gpPt2' stroke-width='0.222' stroke='currentColor' d='M-1,0 L1,0 M0,-1 L0,1 M-1,-1 L1,1 M-1,1 L1,-1'/>
	<rect id='gpPt3' stroke-width='0.222' stroke='currentColor' x='-1' y='-1' width='2' height='2'/>
	<rect id='gpPt4' stroke-width='0.222' stroke='currentColor' fill='currentColor' x='-1' y='-1' width='2' height='2'/>
	<circle id='gpPt5' stroke-width='0.222' stroke='currentColor' cx='0' cy='0' r='1'/>
	<use xlink:href='#gpPt5' id='gpPt6' fill='currentColor' stroke='none'/>
	<path id='gpPt7' stroke-width='0.222' stroke='currentColor' d='M0,-1.33 L-1.33,0.67 L1.33,0.67 z'/>
	<use xlink:href='#gpPt7' id='gpPt8' fill='currentColor' stroke='none'/>
	<use xlink:href='#gpPt7' id='gpPt9' stroke='currentColor' transform='rotate(180)'/>
	<use xlink:href='#gpPt9' id='gpPt10' fill='currentColor' stroke='none'/>
	<use xlink:href='#gpPt3' id='gpPt11' stroke='currentColor' transform='rotate(45)'/>
	<use xlink:href='#gpPt11' id='gpPt12' fill='currentColor' stroke='none'/>
	<path id='gpPt13' stroke-width='0.222' stroke='currentColor' d='M0,1.330 L1.265,0.411 L0.782,-1.067 L-0.782,-1.076 L-1.265,0.411 z'/>
	<use xlink:href='#gpPt13' id='gpPt14' fill='currentColor' stroke='none'/>
	<filter id='textbox' filterUnits='objectBoundingBox' x='0' y='0' height='1' width='1'>
	  <feFlood flood-color='#FFFFFF' flood-opacity='1' result='bgnd'/>
	  <feComposite in='SourceGraphic' in2='bgnd' operator='atop'/>
	</filter>
	<filter id='greybox' filterUnits='objectBoundingBox' x='0' y='0' height='1' width='1'>
	  <feFlood flood-color='lightgrey' flood-opacity='1' result='grey'/>
	  <feComposite in='SourceGraphic' in2='grey' operator='atop'/>
	</filter>
</defs>
<g fill="none" color="#FFFFFF" stroke="black" stroke-width="1.00" stroke-linecap="butt" stroke-linejoin="miter">
</g>
<g fill="none" color="black" stroke="currentColor" stroke-width="1.00" stroke-linecap="butt" stroke-linejoin="miter">
	<path stroke='black'  d='M70.5,372.9 L79.5,372.9 M615.0,372.9 L606.0,372.9  '/>	<g transform="translate(62.2,376.8)" stroke="none" fill="black" font-family="Arial" font-size="12.00"  text-anchor="end">
		<text><tspan font-family="Arial" > 12000</tspan></text>
	</g>
</g>
<g fill="none" color="black" stroke="currentColor" stroke-width="1.00" stroke-linecap="butt" stroke-linejoin="miter">
	<path stroke='black'  d='M70.5,305.3 L79.5,305.3 M615.0,305.3 L606.0,305.3  '/>	<g transform="translate(62.2,309.2)" stroke="none" fill="black" font-family="Arial" font-size="12.00"  text-anchor="end">
		<text><tspan font-family="Arial" > 13000</tspan></text>
	</g>
</g>
<g fill="none" color="black" stroke="currentColor" stroke-width="1.00" stroke-linecap="butt" stroke-linejoin="miter">
	<path stroke='black'  d='M70.5,237.6 L79.5,237.6 M615.0,237.6 L606.0,237.6  '/>	<g transform="translate(62.2,241.5)" stroke="none" fill="black" font-family="Arial" font-size="12.00"  text-anchor="end">
		<text><tspan font-family="Arial" > 14000</tspan></text>
	</g>
</g>
<g fill="none" color="black" stroke="currentColor" stroke-width="1.00" stroke-linecap="butt" stroke-linejoin="miter">
	<path stroke='black'  d='M70.5,170.0 L79.5,170.0 M615.0,170.0 L606.0,170.0  '/>	<g transform="translate(62.2,173.9)" stroke="none" fill="black" font-family="Arial" font-size="12.00"  text-anchor="end">
		<text><tspan font-family="Arial" > 15000</tspan></text>
	</g>
</g>
<g fill="none" color="black" stroke="currentColor" stroke-width="1.00" stroke-linecap="butt" stroke-linejoin="miter">
	<path stroke='black'  d='M70.5,102.3 L79.5,102.3 M615.0,102.3 L606.0,102.3  '/>	<g transform="translate(62.2,106.2)" stroke="none" fill="black" font-family="Arial" font-size="12.00"  text-anchor="end">
		<text><tspan font-family="Arial" > 16000</tspan></text>
	</g>
</g>
<g fill="none" color="black" stroke="currentColor" stroke-width="1.00" stroke-linecap="butt" stroke-linejoin="miter">
	<path stroke='black'  d='M70.5,34.6 L79.5,34.6 M615.0,34.6 L606.0,34.6  '/>	<g transform="translate(62.2,38.5)" stroke="none" fill="black" font-family="Arial" font-size="12.00"  text-anchor="end">
		<text><tspan font-family="Arial" > 17000</tspan></text>
	</g>
</g>
<g fill="none" color="black" stroke="currentColor" stroke-width="1.00" stroke-linecap="butt" stroke-linejoin="miter">
	<path stroke='black'  d='M70.5,428.0 L70.5,419.0 M70.5,18.1 L70.5,27.1  '/>	<g transform="translate(70.5,449.9)" stroke="none" fill="black" font-family="Arial" font-size="12.00"  text-anchor="middle">
		<text><tspan font-family="Arial" > 0</tspan></text>
	</g>
</g>
<g fill="none" color="black" stroke="currentColor" stroke-width="1.00" stroke-linecap="butt" stroke-linejoin="miter">
	<path stroke='black'  d='M125.5,428.0 L125.5,419.0 M125.5,18.1 L125.5,27.1  '/>	<g transform="translate(125.5,449.9)" stroke="none" fill="black" font-family="Arial" font-size="12.00"  text-anchor="middle">
		<text><tspan font-family="Arial" > 10</tspan></text>
	</g>
</g>
<g fill="none" color="black" stroke="currentColor" stroke-width="1.00" stroke-linecap="butt" stroke-linejoin="miter">
	<path stroke='black'  d='M180.5,428.0 L180.5,419.0 M180.5,18.1 L180.5,27.1  '/>	<g transform="translate(180.5,449.9)" stroke="none" fill="black" font-family="Arial" font-size="12.00"  text-anchor="middle">
		<text><tspan font-family="Arial" > 20</tspan></text>
	</g>
</g>
<g fill="none" color="black" stroke="currentColor" stroke-width="1.00" stroke-linecap="butt" stroke-linejoin="miter">
	<path stroke='black'  d='M235.5,428.0 L235.5,419.0 M235.5,18.1 L235.5,27.1  '/>	<g transform="translate(235.5,449.9)" stroke="none" fill="black" font-family="Arial" font-size="12.00"  text-anchor="middle">
		<text><tspan font-family="Arial" > 30</tspan></text>
	</g>
</g>
<g fill="none" color="black" stroke="currentColor" stroke-width="1.00" stroke-linecap="butt" stroke-linejoin="miter">
	<path stroke='black'  d='M290.5,428.0 L290.5,419.0 M290.5,18.1 L290.5,27.1  '/>	<g transform="translate(290.5,449.9)" stroke="none" fill="black" font-family="Arial" font-size="12.00"  text-anchor="middle">
		<text><tspan font-family="Arial" > 40</tspan></text>
	</g>
</g>
<g fill="none" color="black" stroke="currentColor" stroke-width="1.00" stroke-linecap="butt" stroke-linejoin="miter">
	<path stroke='black'  d='M345.5,428.0 L345.5,419.0 M345.5,18.1 L345.5,27.1  '/>	<g transform="translate(345.5,449.9)" stroke="none" fill="black" font-family="Arial" font-size="12.00"  text-anchor="middle">
		<text><tspan font-family="Arial" > 50</tspan></text>
	</g>
</g>
<g fill="none" color="black" stroke="currentColor" stroke-width="1.00" stroke-linecap="butt" stroke-linejoin="miter">
	<path stroke='black'  d='M400.5,428.0 L400.5,419.0 M400.5,18.1 L400.5,27.1  '/>	<g transform="translate(400.5,449.9)" stroke="none" fill="black" font-family="Arial" font-size="12.00"  text-anchor="middle">
		<text><tspan font-family="Arial" > 60</tspan></text>
	</g>
</g>
<g fill="none" color="black" stroke="currentColor" stroke-width="1.00" stroke-linecap="butt" stroke-linejoin="miter">
	<path stroke='black'  d='M455.5,428.0 L455.5,419.0 M455.5,18.1 L455.5,27.1  '/>	<g transform="translate(455.5,449.9)" stroke="none" fill="black" font-family="Arial" font-size="12.00"  text-anchor="middle">
		<text><tspan font-family="Arial" > 70</tspan></text>
	</g>
</g>
<g fill="none" color="black" stroke="currentColor" stroke-width="1.00" stroke-linecap="butt" stroke-linejoin="miter">
	<path stroke='black'  d='M510.5,428.0 L510.5,419.0 M510.5,18.1 L510.5,27.1  '/>	<g transform="translate(510.5,449.9)" stroke="none" fill="black" font-family="Arial" font-size="12.00"  text-anchor="middle">
		<text><tspan font-family="Arial" > 80</tspan></text>
	</g>
</g>
<g fill="none" color="black" stroke="currentColor" stroke-width="1.00" stroke-linecap="butt" stroke-linejoin="miter">
	<path stroke='black'  d='M565.5,428.0 L565.5,419.0 M565.5,18.1 L565.5,27.1  '/>	<g transform="translate(565.5,449.9)" stroke="none" fill="black" font-family="Arial" font-size="12.00"  text-anchor="middle">
		<text><tspan font-family="Arial" > 90</tspan></text>
	</g>
</g>
<g fill="none" color="black" stroke="currentColor" stroke-width="1.00" stroke-linecap="butt" stroke-linejoin="miter">
</g>
<g fill="none" color="black" stroke="currentColor" stroke-width="1.00" stroke-linecap="butt" stroke-linejoin="miter">
	<path stroke='black'  d='M70.5,18.1 L70.5,428.0 L615.0,428.0 L615.0,18.1 L70.5,18.1 Z  '/></g>
<g fill="none" color="black" stroke="currentColor" stroke-width="1.00" stroke-linecap="butt" stroke-linejoin="miter">
</g>
	<g id="gnuplot_plot_1" ><title>pages</title>
<g fill="none" color="black" stroke="currentColor" stroke-width="1.00" stroke-linecap="butt" stroke-linejoin="miter">
	<g transform="translate(283.9,467.9)" stroke="none" fill="black" font-family="Arial" font-size="12.00"  text-anchor="end">
		<text><tspan font-family="Arial" >pages</tspan></text>
	</g>
</g>
<g fill="none" color="black" stroke="currentColor" stroke-width="1.00" stroke-linecap="butt" stroke-linejoin="miter">
	<path stroke='rgb(148,   0, 211)'  d='M292.2,464.0 L334.4,464.0 M70.5,263.7 L76.0,270.4 L81.5,262.3 L87.0,266.6 L92.5,267.8 L98.0,272.8
		L103.5,273.1 L109.0,263.7 L114.5,268.6 L120.0,269.3 L125.5,274.8 L131.0,275.5 L136.5,272.0 L142.0,274.5
		L147.5,262.3 L153.0,272.8 L158.5,267.4 L164.0,273.6 L169.5,264.5 L175.0,270.0 L180.5,273.7 L186.0,269.5
		L191.5,272.1 L197.0,267.1 L202.5,267.3 L208.0,275.0 L213.5,273.0 L219.0,263.8 L224.5,273.5 L230.0,275.5
		L235.5,268.6 L241.0,259.5 L246.5,273.7 L252.0,274.6 L257.5,268.4 L263.0,273.6 L268.5,275.0 L274.0,274.4
		L279.5,264.0 L285.0,268.5 L290.5,273.5 L296.0,274.7 L301.5,268.4 L307.0,267.1 L312.5,273.9 L318.0,263.7
		L323.5,266.9 L329.0,276.4 L334.5,274.3 L340.0,274.4 L345.5,274.5 L351.0,265.9 L356.5,270.2 L362.0,270.1
		L367.5,272.6 L373.0,274.5 L378.5,269.7 L384.0,278.2 L389.5,272.9 L395.0,270.2 L400.5,268.7 L406.0,275.0
		L411.5,275.3 L417.0,268.6 L422.5,273.0 L428.0,263.7 L433.5,274.1 L439.0,269.6 L444.5,275.6 L450.0,26.0
		L455.5,264.5 L461.0,273.2 L466.5,259.3 L472.0,264.8 L477.5,277.6 L483.0,274.1 L488.5,272.8 L494.0,264.5
		L499.5,273.9 L505.0,266.2 L510.5,268.8 L516.0,267.2 L521.5,274.6 L527.0,269.5 L532.5,274.2 L538.0,334.4
		L543.5,332.5 L549.0,270.9 L554.5,273.1 L560.0,256.5 L565.5,273.1 L571.0,259.2 L576.5,270.4 L582.0,274.5
		L587.5,274.6 L593.0,273.1 L598.5,272.3 L604.0,268.8 L609.5,269.1 L615.0,273.1  '/></g>
	</g>
	<g id="gnuplot_plot_2" ><title>pages+cached</title>
<g fill="none" color="black" stroke="currentColor" stroke-width="1.00" stroke-linecap="butt" stroke-linejoin="miter">
	<g transform="translate(283.9,485.9)" stroke="none" fill="black" font-family="Arial" font-size="12.00"  text-anchor="end">
		<text><tspan font-family="Arial" >pages+cached</tspan></text>
	</g>
</g>
<g fill="none" color="black" stroke="currentColor" stroke-width="1.00" stroke-linecap="butt" stroke-linejoin="miter">
	<path stroke='rgb(  0, 158, 115)'  d='M292.2,482.0 L334.4,482.0 M70.5,352.8 L76.0,420.1 L81.5,170.6 L87.0,116.3 L92.5,117.6 L98.0,117.2
		L103.5,117.2 L109.0,178.4 L114.5,183.6 L120.0,116.2 L125.5,183.8 L131.0,116.0 L136.5,112.9 L142.0,178.4
		L147.5,116.8 L153.0,178.2 L158.5,116.8 L164.0,179.0 L169.5,116.1 L175.0,184.3 L180.5,180.3 L186.0,178.4
		L191.5,118.0 L197.0,118.5 L202.5,118.7 L208.0,179.1 L213.5,117.3 L219.0,118.9 L224.5,179.6 L230.0,183.0
		L235.5,118.4 L241.0,117.5 L246.5,117.9 L252.0,117.4 L257.5,118.8 L263.0,116.3 L268.5,117.7 L274.0,178.3
		L279.5,185.8 L285.0,117.8 L290.5,117.8 L296.0,117.8 L301.5,178.7 L307.0,116.5 L312.5,118.4 L318.0,117.1
		L323.5,185.3 L329.0,117.8 L334.5,117.9 L340.0,178.7 L345.5,184.7 L351.0,179.6 L356.5,112.9 L362.0,117.5
		L367.5,178.9 L373.0,184.4 L378.5,183.8 L384.0,183.6 L389.5,119.3 L395.0,180.3 L400.5,180.4 L406.0,117.5
		L411.5,185.3 L417.0,117.7 L422.5,179.7 L428.0,119.0 L433.5,117.4 L439.0,118.6 L444.5,119.0 L450.0,183.9
		L455.5,118.4 L461.0,118.0 L466.5,118.0 L472.0,118.3 L477.5,116.6 L483.0,118.9 L488.5,117.8 L494.0,184.7
		L499.5,119.0 L505.0,118.4 L510.5,178.6 L516.0,118.4 L521.5,179.6 L527.0,118.5 L532.5,120.1 L538.0,118.2
		L543.5,184.8 L549.0,118.2 L554.5,119.0 L560.0,185.1 L565.5,118.4 L571.0,185.1 L576.5,183.8 L582.0,184.3
		L587.5,118.4 L593.0,119.3 L598.5,186.7 L604.0,117.6 L609.5,179.3 L615.0,178.4  '/></g>
	</g>
	<g id="gnuplot_plot_3" ><title>score p10=2500</title>
<g fill="none" color="black" stroke="currentColor" stroke-width="1.00" stroke-linecap="butt" stroke-linejoin="miter">
	<g transform="translate(483.8,467.9)" stroke="none" fill="black" font-family="Arial" font-size="12.00"  text-anchor="end">
		<text><tspan font-family="Arial" >score p10=2500</tspan></text>
	</g>
</g>
<g fill="none" color="black" stroke="currentColor" stroke-width="1.00" stroke-linecap="butt" stroke-linejoin="miter">
	<path stroke='rgb( 86, 180, 233)'  d='M492.1,464.0 L534.3,464.0  '/></g>
	</g>
	<g id="gnuplot_plot_4" ><title>score median=4000</title>
<g fill="none" color="black" stroke="currentColor" stroke-width="1.00" stroke-linecap="butt" stroke-linejoin="miter">
	<g transform="translate(483.8,485.9)" stroke="none" fill="black" font-family="Arial" font-size="12.00"  text-anchor="end">
		<text><tspan font-family="Arial" >score median=4000</tspan></text>
	</g>
</g>
<g fill="none" color="black" stroke="currentColor" stroke-width="1.00" stroke-linecap="butt" stroke-linejoin="miter">
	<path stroke='rgb(230, 159,   0)'  d='M492.1,482.0 L534.3,482.0  '/></g>
	</g>
<g fill="none" color="#FFFFFF" stroke="rgb(230, 159,   0)" stroke-width="2.00" stroke-linecap="butt" stroke-linejoin="miter">
</g>
<g fill="none" color="black" stroke="currentColor" stroke-width="2.00" stroke-linecap="butt" stroke-linejoin="miter">
</g>
<g fill="none" color="black" stroke="black" stroke-width="1.00" stroke-linecap="butt" stroke-linejoin="miter">
</g>
<g fill="none" color="black" stroke="currentColor" stroke-width="1.00" stroke-linecap="butt" stroke-linejoin="miter">
	<path stroke='black'  d='M70.5,18.1 L70.5,428.0 L615.0,428.0 L615.0,18.1 L70.5,18.1 Z  '/></g>
<g fill="none" color="black" stroke="currentColor" stroke-width="1.00" stroke-linecap="butt" stroke-linejoin="miter">
</g>
</g>
</svg>
